svg_80x80/aiohttp.svg

<svg viewBox="0 0 80 80" xmlns="http://www.w3.org/2000/svg">
<rect width="100%" height="100%" fill="#2C5BB4"/>
<path fill-rule="evenodd" clip-rule="evenodd" d="M72 40C72 46.329 70.1232 52.5159 66.607 57.7783C63.0908 63.0406 58.0931 67.1421 52.2459 69.5642C46.3987 71.9862 39.9645 72.6199 33.7571 71.3851C27.5497 70.1504 21.8479 67.1027 17.3726 62.6274C12.8973 58.1521 9.84961 52.4503 8.61489 46.2429C7.38016 40.0355 8.01386 33.6014 10.4359 27.7541C12.8579 21.9069 16.9594 16.9092 22.2218 13.393C27.4841 9.87677 33.671 8 40 8C48.4869 8 56.6263 11.3714 62.6274 17.3726C68.6286 23.3737 72 31.5131 72 40ZM25.3399 14.3407C24.7427 14.6818 24.1563 15.0445 23.5818 15.4284C18.722 18.6756 14.9342 23.291 12.6975 28.6909C10.4735 34.0601 9.88229 39.9651 10.9965 45.6674L11.04 45.2721L23.7415 46.645C24.0924 45.0896 25.4826 43.928 27.144 43.928C27.7368 43.928 28.295 44.0758 28.7838 44.3367L36.0054 33.8685C34.4581 32.6544 33.464 30.7673 33.464 28.648C33.464 26.9961 34.0679 25.4853 35.067 24.3243L25.072 14.624L25.3399 14.3407ZM19.1036 60.8964C15.0479 56.8407 12.2617 51.6941 11.0815 46.086L23.6561 47.443C23.6669 48.8739 24.5395 50.0999 25.7805 50.6274L23.8186 57.2946C23.765 57.2902 23.7107 57.288 23.656 57.288C22.5647 57.288 21.68 58.1726 21.68 59.264C21.68 60.2218 22.3615 61.0204 23.266 61.2015L23.2568 64.3513C21.7766 63.3336 20.3856 62.1784 19.1036 60.8964ZM23.6605 64.624C26.8521 66.7418 30.4412 68.2296 34.2347 68.9842C39.9672 70.1244 45.9092 69.5392 51.3091 67.3025C53.8807 66.2373 56.2744 64.8203 58.4272 63.1033L58.048 63.264L57.2817 61.4664C57.157 61.4911 57.028 61.504 56.896 61.504C55.8047 61.504 54.92 60.6193 54.92 59.528C54.92 58.8574 55.254 58.2649 55.7648 57.9076L53.9975 53.7616C53.6838 53.8543 53.3517 53.904 53.008 53.904C51.5327 53.904 50.2713 52.988 49.7615 51.6938L42.9012 53.5093C42.9031 53.5447 42.904 53.5802 42.904 53.616C42.904 54.7073 42.0193 55.592 40.928 55.592C39.8367 55.592 38.952 54.7073 38.952 53.616C38.952 53.4689 38.9681 53.3255 38.9986 53.1875L30.1381 49.2063C29.5287 50.2233 28.4158 50.904 27.144 50.904C26.9423 50.904 26.7446 50.8869 26.5522 50.854L24.5882 57.5212C25.2095 57.8543 25.632 58.5098 25.632 59.264C25.632 60.2182 24.9555 61.0145 24.056 61.1995V64.624H23.6605ZM30.4689 48.4734L39.3287 52.4553C39.6879 51.9612 40.2705 51.64 40.928 51.64C41.7021 51.64 42.3723 52.0852 42.6964 52.7334L49.5553 50.9136C49.532 50.7511 49.52 50.5849 49.52 50.416C49.52 49.2834 50.0599 48.2768 50.8963 47.6396L43.1298 34.5469C42.2207 35.0155 41.1892 35.28 40.096 35.28C38.8407 35.28 37.6669 34.9313 36.6662 34.3254L29.441 44.791C30.171 45.4304 30.632 46.3693 30.632 47.416C30.632 47.7846 30.5748 48.1399 30.4689 48.4734ZM54.7354 53.4469L56.5008 57.5915C56.6285 57.5656 56.7606 57.552 56.896 57.552C57.9873 57.552 58.872 58.4367 58.872 59.528C58.872 60.2024 58.5341 60.798 58.0184 61.1545L58.7405 62.8499C60.9782 61.0146 62.9463 58.8507 64.5716 56.4182C65.1818 55.5049 65.7386 54.5615 66.2405 53.5927L56.3193 51.5151C56.0465 52.3374 55.4759 53.0239 54.7354 53.4469ZM46.728 28.648C46.728 30.9309 45.5745 32.9444 43.8186 34.1374L51.587 47.2296C52.021 47.0358 52.5019 46.928 53.008 46.928C54.9344 46.928 56.496 48.4896 56.496 50.416C56.496 50.5219 56.4913 50.6268 56.482 50.7304L66.512 52.8321L66.4347 53.211C68.4772 49.1239 69.552 44.6027 69.552 40C69.552 33.1397 67.1666 26.5254 62.8552 21.2659L62.976 21.64L58.8558 22.9781C58.8665 23.0612 58.872 23.1459 58.872 23.232C58.872 24.3233 57.9873 25.208 56.896 25.208C56.1474 25.208 55.496 24.7917 55.1607 24.178L46.5177 26.9848C46.655 27.5163 46.728 28.0736 46.728 28.648ZM25.716 14.1294L35.6247 23.7498C36.8039 22.6729 38.3732 22.016 40.096 22.016C42.9017 22.016 45.3005 23.7583 46.2694 26.2199L54.9276 23.4066C54.9226 23.3491 54.92 23.2908 54.92 23.232C54.92 22.1407 55.8047 21.256 56.896 21.256C57.6158 21.256 58.2458 21.6409 58.5912 22.2162L62.5701 20.9234C62.0398 20.2961 61.4817 19.6888 60.8964 19.1036C55.3544 13.5615 47.8377 10.448 40 10.448C34.9907 10.448 30.0777 11.7211 25.716 14.1294Z" fill="white"/>
</svg>

<svg xmlns="http://www.w3.org/2000/svg" viewBox="0 0 80 80">
  <rect width="100%" height="100%" fill="#2C5BB4"/>
  <path fill="#fff" fill-rule="evenodd" d="M72 40a32 32 0 1 1-64 0 32 32 0 0 1 64 0ZM25.34 14.34A29.48 29.48 0 0 0 12.7 28.7 29.55 29.55 0 0 0 11 45.67l.04-.4 12.7 1.38a3.49 3.49 0 0 1 5.04-2.31l7.23-10.47a6.62 6.62 0 0 1-.94-9.55l-10-9.7.27-.28ZM19.1 60.9a29.55 29.55 0 0 1-8.02-14.81l12.58 1.35a3.49 3.49 0 0 0 2.12 3.19l-1.96 6.66h-.16a1.98 1.98 0 0 0-.4 3.91v3.15a29.55 29.55 0 0 1-4.16-3.45Zm4.56 3.72a29.55 29.55 0 0 0 34.77-1.52l-.38.16-.77-1.8a1.98 1.98 0 0 1-2.36-1.93c0-.67.33-1.27.84-1.62L54 53.76a3.49 3.49 0 0 1-4.24-2.07l-6.86 1.82v.1a1.98 1.98 0 1 1-3.9-.42l-8.86-3.98a3.49 3.49 0 0 1-3.59 1.64l-1.96 6.67a1.98 1.98 0 0 1-.53 3.68v3.42h-.4Zm6.8-16.15 8.87 3.99a1.97 1.97 0 0 1 3.37.27l6.86-1.82a3.5 3.5 0 0 1 1.34-3.27l-7.77-13.1a6.6 6.6 0 0 1-6.46-.21l-7.23 10.46a3.48 3.48 0 0 1 1.03 3.68Zm24.28 4.98 1.76 4.14a1.99 1.99 0 0 1 2.37 1.94c0 .67-.34 1.27-.85 1.62l.72 1.7a29.55 29.55 0 0 0 7.5-9.26l-9.92-2.07a3.5 3.5 0 0 1-1.58 1.93Zm-8.01-24.8c0 2.28-1.16 4.3-2.91 5.49l7.77 13.09a3.48 3.48 0 0 1 4.9 3.19v.31l10.02 2.1-.08.38a29.55 29.55 0 0 0-3.57-31.94l.12.37-4.12 1.34.01.25a1.98 1.98 0 0 1-3.7.95l-8.65 2.8c.13.54.2 1.1.2 1.67ZM25.72 14.13l9.9 9.62a6.63 6.63 0 0 1 10.64 2.47l8.67-2.81-.01-.18a1.98 1.98 0 0 1 3.67-1.01l3.98-1.3a29.55 29.55 0 0 0-36.85-6.8Z" clip-rule="evenodd"/>
</svg>
